Sources/FrostedUI/Resources/Icons.xcassets/sparkleMultiple12.imageset/sparkle-multiple-12.svg

<svg width="12" height="12" viewBox="0 0 12 12" fill="none" xmlns="http://www.w3.org/2000/svg" data-fui-icon="true">
  <path
    d="M4 8C4 6.8058 3.1942 6 2 6 3.1942 6 4 5.1942 4 4 4 5.1942 4.8058 6 6 6 4.8058 6 4 6.8058 4 8zM8 4C8 3.4029 7.5971 3 7 3 7.5971 3 8 2.5971 8 2 8 2.5971 8.4029 3 9 3 8.4029 3 8 3.4029 8 4zM8 10C8 9.4029 7.5971 9 7 9 7.5971 9 8 8.5971 8 8 8 8.5971 8.4029 9 9 9 8.4029 9 8 9.4029 8 10z"
    stroke="currentColor"
    stroke-width="1.5"
    stroke-linecap="round"
    stroke-linejoin="round"
  />
</svg>

<svg xmlns="http://www.w3.org/2000/svg" width="12" height="12" fill="none" data-fui-icon="true" viewBox="0 0 12 12"><path stroke="currentColor" stroke-linecap="round" stroke-linejoin="round" stroke-width="1.5" d="M4 8c0-1.194-.806-2-2-2 1.194 0 2-.806 2-2 0 1.194.806 2 2 2-1.194 0-2 .806-2 2m4-4c0-.597-.403-1-1-1 .597 0 1-.403 1-1 0 .597.403 1 1 1-.597 0-1 .403-1 1m0 6c0-.597-.403-1-1-1 .597 0 1-.403 1-1 0 .597.403 1 1 1-.597 0-1 .403-1 1"/></svg>
